symbols/web/art_track/materialsymbolsrounded/art_track_gradN25_20px.svg

<svg xmlns="http://www.w3.org/2000/svg" height="20" width="20"><path d="M2.896 15.667q-.688 0-1.167-.479-.479-.48-.479-1.167V5.979q0-.687.479-1.166.479-.48 1.167-.48h8.042q.687 0 1.166.48.479.479.479 1.166v8.042q0 .687-.479 1.167-.479.479-1.166.479Zm0-1.646h8.042V5.979H2.896v8.042Zm11.958 1.646q-.333 0-.583-.25-.25-.25-.25-.563V5.125q0-.313.25-.552.25-.24.583-.24.313 0 .563.25.25.25.25.563v9.729q0 .313-.25.552-.25.24-.563.24Zm3.084 0q-.334 0-.584-.25-.25-.25-.25-.563V5.125q0-.313.25-.552.25-.24.584-.24.312 0 .562.25.25.25.25.563v9.729q0 .313-.25.552-.25.24-.562.24Zm-13.646-3.25h5.25q.187 0 .27-.177.084-.178-.02-.323l-1.5-2q-.104-.146-.261-.146-.156 0-.26.146L6.5 11.562l-.854-1.145q-.104-.146-.271-.136-.167.011-.25.157l-1.083 1.458q-.125.166-.032.344.094.177.282.177ZM2.896 5.979v8.042-8.042Z"/></svg>

<svg xmlns="http://www.w3.org/2000/svg" height="20" width="20"><path d="M2.896 15.667Q2.208 15.667 1.729 15.188Q1.25 14.708 1.25 14.021V5.979Q1.25 5.292 1.729 4.813Q2.208 4.333 2.896 4.333H10.938Q11.625 4.333 12.104 4.813Q12.583 5.292 12.583 5.979V14.021Q12.583 14.708 12.104 15.188Q11.625 15.667 10.938 15.667ZM2.896 14.021H10.938Q10.938 14.021 10.938 14.021Q10.938 14.021 10.938 14.021V5.979Q10.938 5.979 10.938 5.979Q10.938 5.979 10.938 5.979H2.896Q2.896 5.979 2.896 5.979Q2.896 5.979 2.896 5.979V14.021Q2.896 14.021 2.896 14.021Q2.896 14.021 2.896 14.021ZM14.854 15.667Q14.521 15.667 14.271 15.417Q14.021 15.167 14.021 14.854V5.125Q14.021 4.812 14.271 4.573Q14.521 4.333 14.854 4.333Q15.167 4.333 15.417 4.583Q15.667 4.833 15.667 5.146V14.875Q15.667 15.188 15.417 15.427Q15.167 15.667 14.854 15.667ZM17.938 15.667Q17.604 15.667 17.354 15.417Q17.104 15.167 17.104 14.854V5.125Q17.104 4.812 17.354 4.573Q17.604 4.333 17.938 4.333Q18.25 4.333 18.5 4.583Q18.75 4.833 18.75 5.146V14.875Q18.75 15.188 18.5 15.427Q18.25 15.667 17.938 15.667ZM4.292 12.417H9.542Q9.729 12.417 9.812 12.24Q9.896 12.062 9.792 11.917L8.292 9.917Q8.188 9.771 8.031 9.771Q7.875 9.771 7.771 9.917L6.5 11.562L5.646 10.417Q5.542 10.271 5.375 10.281Q5.208 10.292 5.125 10.438L4.042 11.896Q3.917 12.062 4.01 12.24Q4.104 12.417 4.292 12.417ZM2.896 5.979Q2.896 5.979 2.896 5.979Q2.896 5.979 2.896 5.979V14.021Q2.896 14.021 2.896 14.021Q2.896 14.021 2.896 14.021Q2.896 14.021 2.896 14.021Q2.896 14.021 2.896 14.021V5.979Q2.896 5.979 2.896 5.979Q2.896 5.979 2.896 5.979Z"/></svg>
